static/img/kroki/8f397a33f35c6ddfd8c9c8c84b9f7b5c.svg

<?xml version="1.0" encoding="us-ascii" standalone="no"?><svg xmlns="http://www.w3.org/2000/svg" xmlns:xlink="http://www.w3.org/1999/xlink" contentStyleType="text/css" height="374px" preserveAspectRatio="none" style="width:307px;height:374px;" version="1.1" viewBox="0 0 307 374" width="307px" zoomAndPan="magnify"><defs/><g><!--class resource--><g id="elem_resource"><rect codeLine="23" fill="#3D176E" height="39.7891" id="resource" rx="2.5" ry="2.5" style="stroke:#000D19;stroke-width:0.5;" width="113" x="7" y="7"/><ellipse cx="22" cy="26.8945" fill="#ADD1B2" rx="11" ry="11" style="stroke:#181818;stroke-width:1.0;"/><path d="M24.9688,32.5352 Q24.3906,32.832 23.75,32.9727 Q23.1094,33.1289 22.4063,33.1289 Q19.9063,33.1289 18.5781,31.4883 Q17.2656,29.832 17.2656,26.707 Q17.2656,23.582 18.5781,21.9258 Q19.9063,20.2695 22.4063,20.2695 Q23.1094,20.2695 23.75,20.4258 Q24.4063,20.582 24.9688,20.8789 L24.9688,23.5977 Q24.3438,23.0195 23.75,22.7539 Q23.1563,22.4727 22.5313,22.4727 Q21.1875,22.4727 20.5,23.5508 Q19.8125,24.6133 19.8125,26.707 Q19.8125,28.8008 20.5,29.8789 Q21.1875,30.9414 22.5313,30.9414 Q23.1563,30.9414 23.75,30.6758 Q24.3438,30.3945 24.9688,29.8164 L24.9688,32.5352 Z " fill="#000000"/><text fill="#D9B8FF" font-family="Helvetica" font-size="17" lengthAdjust="spacing" textLength="71" x="41" y="32.7798">resource</text></g><!--class slack_resource--><g id="elem_slack_resource"><rect codeLine="26" fill="#3D176E" height="39.7891" id="slack_resource" rx="2.5" ry="2.5" style="stroke:#000D19;stroke-width:0.5;" width="163" x="137" y="167.79"/><ellipse cx="152" cy="187.6845" fill="#ADD1B2" rx="11" ry="11" style="stroke:#181818;stroke-width:1.0;"/><path d="M154.9688,193.3252 Q154.3906,193.622 153.75,193.7627 Q153.1094,193.9189 152.4063,193.9189 Q149.9063,193.9189 148.5781,192.2783 Q147.2656,190.622 147.2656,187.497 Q147.2656,184.372 148.5781,182.7158 Q149.9063,181.0595 152.4063,181.0595 Q153.1094,181.0595 153.75,181.2158 Q154.4063,181.372 154.9688,181.6689 L154.9688,184.3877 Q154.3438,183.8095 153.75,183.5439 Q153.1563,183.2627 152.5313,183.2627 Q151.1875,183.2627 150.5,184.3408 Q149.8125,185.4033 149.8125,187.497 Q149.8125,189.5908 150.5,190.6689 Q151.1875,191.7314 152.5313,191.7314 Q153.1563,191.7314 153.75,191.4658 Q154.3438,191.1845 154.9688,190.6064 L154.9688,193.3252 Z " fill="#000000"/><text fill="#D9B8FF" font-family="Helvetica" font-size="17" lengthAdjust="spacing" textLength="121" x="171" y="193.5698">slack_resource</text></g><!--class slack_user--><g id="elem_slack_user"><rect codeLine="29" fill="#3D176E" height="39.7891" id="slack_user" rx="2.5" ry="2.5" style="stroke:#000D19;stroke-width:0.5;" width="128" x="97.5" y="328.58"/><ellipse cx="112.5" cy="348.4745" fill="#ADD1B2" rx="11" ry="11" style="stroke:#181818;stroke-width:1.0;"/><path d="M115.4688,354.1152 Q114.8906,354.412 114.25,354.5527 Q113.6094,354.7089 112.9063,354.7089 Q110.4063,354.7089 109.0781,353.0683 Q107.7656,351.412 107.7656,348.287 Q107.7656,345.162 109.0781,343.5058 Q110.4063,341.8495 112.9063,341.8495 Q113.6094,341.8495 114.25,342.0058 Q114.9063,342.162 115.4688,342.4589 L115.4688,345.1777 Q114.8438,344.5995 114.25,344.3339 Q113.6563,344.0527 113.0313,344.0527 Q111.6875,344.0527 111,345.1308 Q110.3125,346.1933 110.3125,348.287 Q110.3125,350.3808 111,351.4589 Q111.6875,352.5214 113.0313,352.5214 Q113.6563,352.5214 114.25,352.2558 Q114.8438,351.9745 115.4688,351.3964 L115.4688,354.1152 Z " fill="#000000"/><text fill="#D9B8FF" font-family="Helvetica" font-size="17" lengthAdjust="spacing" textLength="86" x="131.5" y="354.3598">slack_user</text></g><!--class user--><g id="elem_user"><rect codeLine="32" fill="#3D176E" height="39.7891" id="user" rx="2.5" ry="2.5" style="stroke:#000D19;stroke-width:0.5;" width="78" x="24.5" y="167.79"/><ellipse cx="39.5" cy="187.6845" fill="#ADD1B2" rx="11" ry="11" style="stroke:#181818;stroke-width:1.0;"/><path d="M42.4688,193.3252 Q41.8906,193.622 41.25,193.7627 Q40.6094,193.9189 39.9063,193.9189 Q37.4063,193.9189 36.0781,192.2783 Q34.7656,190.622 34.7656,187.497 Q34.7656,184.372 36.0781,182.7158 Q37.4063,181.0595 39.9063,181.0595 Q40.6094,181.0595 41.25,181.2158 Q41.9063,181.372 42.4688,181.6689 L42.4688,184.3877 Q41.8438,183.8095 41.25,183.5439 Q40.6563,183.2627 40.0313,183.2627 Q38.6875,183.2627 38,184.3408 Q37.3125,185.4033 37.3125,187.497 Q37.3125,189.5908 38,190.6689 Q38.6875,191.7314 40.0313,191.7314 Q40.6563,191.7314 41.25,191.4658 Q41.8438,191.1845 42.4688,190.6064 L42.4688,193.3252 Z " fill="#000000"/><text fill="#D9B8FF" font-family="Helvetica" font-size="17" lengthAdjust="spacing" textLength="36" x="58.5" y="193.5698">user</text></g><!--reverse link slack_resource to slack_user--><g id="link_slack_resource_slack_user"><path codeLine="35" d="M205.5413,224.7825 C194.5913,255.3025 179.37,297.69 168.4,328.25 " fill="none" id="slack_resource-backto-slack_user" style="stroke:#FFAF37;stroke-width:2.0;"/><polygon fill="none" points="211.62,207.84,199.8938,222.7563,211.1888,226.8088,211.62,207.84" style="stroke:#FFAF37;stroke-width:2.0;"/></g><!--reverse link user to slack_user--><g id="link_user_slack_user"><path codeLine="36" d="M84.775,223.1567 C103.615,253.6767 130.77,297.69 149.64,328.25 " fill="none" id="user-backto-slack_user" style="stroke:#FFAF37;stroke-width:2.0;"/><polygon fill="none" points="75.32,207.84,79.6694,226.3084,89.8806,220.0051,75.32,207.84" style="stroke:#FFAF37;stroke-width:2.0;"/></g><!--reverse link resource to user--><g id="link_resource_user"><path codeLine="37" d="M63.5,65.05 C63.5,95.57 63.5,136.9 63.5,167.46 " fill="none" id="resource-backto-user" style="stroke:#FFAF37;stroke-width:2.0;"/><polygon fill="none" points="63.5,47.05,57.5,65.05,69.5,65.05,63.5,47.05" style="stroke:#FFAF37;stroke-width:2.0;"/></g><!--SRC=[XP1FJyCm3CNl_HIHTgxKCa5NYSkeXE0o8SOTfOspHMsJoawPnf_lJjiD2Ecw7VtUp_Qpjqe0WxgnUrP3dGDIGANI3KTUioMYsMMcCiXcKd8vJtpptcXx4LZn6jW3L6zWLS5zucMhYb834Rjoh3jUb1iqhHQ7yHQvfiu2RHqggpZHqbfKUMl12IFIV26bJ_f3PtCH9pSmmWmAm2CIHP68Kn-vkEhitR_4Mhq3YzsdhOo5KSpHYe4wcx8dd92ZGt_yoOnFN0YbD-pQqPuFcL03_jFNMoxChgSbhyXTGnOGZDqta8skWdGXP78IVfo2Ww9_7KCWqs81x2C8leuQLLtFwxJJKfVQKVzgh_FsCmn3foaOo97gyOFs3G00]--></g></svg>

<svg xmlns="http://www.w3.org/2000/svg" width="307" height="374" viewBox="0 0 307 374"><rect width="113" height="39.789" x="7" y="7" fill="#3D176E" rx="2.5" ry="2.5" style="stroke:#000d19;stroke-width:.5"/><circle cx="22" cy="26.895" r="11" fill="#ADD1B2" style="stroke:#181818;stroke-width:1"/><path d="M24.969 32.535q-.578.297-1.219.438-.64.156-1.344.156-2.5 0-3.828-1.64-1.312-1.657-1.312-4.782t1.312-4.781q1.328-1.656 3.828-1.656.703 0 1.344.156.656.156 1.219.453v2.719q-.625-.578-1.219-.844-.594-.281-1.219-.281-1.343 0-2.031 1.078-.687 1.062-.687 3.156t.687 3.172q.688 1.062 2.031 1.062.625 0 1.219-.265.594-.281 1.219-.86z"/><text x="41" y="32.78" fill="#D9B8FF" font-family="Helvetica" font-size="17" textLength="71">resource</text><rect width="163" height="39.789" x="137" y="167.79" fill="#3D176E" rx="2.5" ry="2.5" style="stroke:#000d19;stroke-width:.5"/><circle cx="152" cy="187.685" r="11" fill="#ADD1B2" style="stroke:#181818;stroke-width:1"/><path d="M154.969 193.325q-.578.297-1.219.438-.64.156-1.344.156-2.5 0-3.828-1.64-1.312-1.657-1.312-4.782t1.312-4.781q1.328-1.656 3.828-1.656.703 0 1.344.156.656.156 1.219.453v2.719q-.625-.578-1.219-.844-.594-.281-1.219-.281-1.344 0-2.031 1.078-.687 1.062-.687 3.156t.687 3.172q.688 1.062 2.031 1.062.625 0 1.219-.265.594-.281 1.219-.86z"/><text x="171" y="193.57" fill="#D9B8FF" font-family="Helvetica" font-size="17" textLength="121">slack_resource</text><rect width="128" height="39.789" x="97.5" y="328.58" fill="#3D176E" rx="2.5" ry="2.5" style="stroke:#000d19;stroke-width:.5"/><circle cx="112.5" cy="348.474" r="11" fill="#ADD1B2" style="stroke:#181818;stroke-width:1"/><path d="M115.469 354.115q-.578.297-1.219.438-.64.156-1.344.156-2.5 0-3.828-1.64-1.312-1.657-1.312-4.782t1.312-4.781q1.328-1.656 3.828-1.656.703 0 1.344.156.656.156 1.219.453v2.719q-.625-.579-1.219-.844-.594-.281-1.219-.281-1.344 0-2.031 1.078-.687 1.062-.687 3.156t.687 3.172q.688 1.062 2.031 1.062.625 0 1.219-.265.594-.281 1.219-.86z"/><text x="131.5" y="354.36" fill="#D9B8FF" font-family="Helvetica" font-size="17" textLength="86">slack_user</text><rect width="78" height="39.789" x="24.5" y="167.79" fill="#3D176E" rx="2.5" ry="2.5" style="stroke:#000d19;stroke-width:.5"/><circle cx="39.5" cy="187.685" r="11" fill="#ADD1B2" style="stroke:#181818;stroke-width:1"/><path d="M42.469 193.325q-.578.297-1.219.438-.64.156-1.344.156-2.5 0-3.828-1.64-1.312-1.657-1.312-4.782t1.312-4.781q1.328-1.656 3.828-1.656.703 0 1.344.156.656.156 1.219.453v2.719q-.625-.578-1.219-.844-.594-.281-1.219-.281-1.343 0-2.031 1.078-.687 1.062-.687 3.156t.687 3.172q.688 1.062 2.031 1.062.625 0 1.219-.265.594-.281 1.219-.86z"/><text x="58.5" y="193.57" fill="#D9B8FF" font-family="Helvetica" font-size="17" textLength="36">user</text><path fill="none" d="M205.541 224.783c-10.95 30.52-26.171 72.907-37.141 103.467m43.22-120.41-11.726 14.916 11.295 4.053zM84.775 223.157c18.84 30.52 45.995 74.533 64.865 105.093M75.32 207.84l4.35 18.468 10.21-6.303zM63.5 65.05v102.41m0-120.41-6 18h12z" style="stroke:#ffaf37;stroke-width:2"/></svg>
